assets/images/trash_dontedityourself.svg

<svg width="341" height="34" viewBox="0 0 341 34" fill="none" xmlns="http://www.w3.org/2000/svg">
<path d="M13.3331 0.799998H0.445126V26H13.3331C22.6931 26 26.4011 20.888 26.4011 13.436C26.4011 5.552 22.1171 0.799998 13.3331 0.799998ZM13.7651 21.428H6.02513V5.372H13.7651C18.9851 5.372 20.8211 9.224 20.8211 13.436C20.8211 17.612 18.7331 21.428 13.7651 21.428ZM39.6384 26.36C46.0824 26.36 50.6904 22.94 50.6904 17C50.6904 11.06 46.0824 7.64 39.6384 7.64C33.1224 7.64 28.5864 11.06 28.5864 17C28.5864 22.94 33.1224 26.36 39.6384 26.36ZM39.6384 22.292C36.1824 22.292 34.0224 20.132 34.0224 17C34.0224 13.868 36.1824 11.708 39.6384 11.708C43.0584 11.708 45.2544 13.868 45.2544 17C45.2544 20.132 43.0584 22.292 39.6384 22.292ZM65.3126 7.64C60.9566 7.64 59.2646 9.548 58.6166 10.484H58.4726L58.6526 8.396V8H53.2526V26H58.6526V17.576C58.6526 13.652 61.1366 11.564 64.2686 11.564C67.4366 11.564 68.8046 13.328 68.8046 17.036V26H74.1686V15.668C74.1686 9.692 70.3526 7.64 65.3126 7.64ZM76.8113 0.799998V6.668H79.8713C79.8713 8.504 79.4033 9.296 76.9913 9.296H76.1633V13.112H77.3873C81.3113 13.112 82.9313 11.564 82.9313 7.388V0.799998H76.8113ZM94.1002 20.024V11.924H99.7522V8H94.1002V1.52L88.7002 2.24V8H84.7042V11.924H88.7002V20.348C88.7002 24.056 91.0402 26.252 94.8922 26.18C95.1082 26.18 95.3962 26.18 95.8642 26.144L99.4282 25.856V21.824L97.0522 21.968C96.6922 22.004 96.3682 22.004 96.2602 22.004C94.7122 22.04 94.1002 21.212 94.1002 20.024ZM120.837 22.22C117.993 22.22 115.365 21.104 114.681 18.476H131.061C131.241 18.008 131.349 17.288 131.349 16.568C131.349 10.952 126.561 7.64 120.477 7.64C114.033 7.64 109.425 11.348 109.425 17.108C109.425 22.796 114.177 26.324 120.873 26.324C125.733 26.324 130.773 24.524 131.349 20.06H125.985C125.337 21.752 122.997 22.22 120.837 22.22ZM120.477 11.564C123.321 11.564 125.301 12.788 125.877 14.948H114.825C115.581 12.824 117.561 11.564 120.477 11.564ZM155.189 20.312V0.079999H149.861V9.98H149.717C148.565 8.54 146.333 7.64 143.417 7.64C137.333 7.64 133.517 11.096 133.517 17C133.517 22.868 137.333 26.324 143.345 26.324C146.405 26.324 148.673 25.244 149.933 23.48H150.077C150.221 24.524 150.401 25.352 150.581 26H155.765V25.604C155.369 24.812 155.189 22.688 155.189 20.312ZM144.425 22.148C141.077 22.148 138.953 20.24 138.953 17C138.953 13.724 141.077 11.816 144.425 11.816C147.701 11.816 149.861 13.724 149.861 17C149.861 20.24 147.701 22.148 144.425 22.148ZM158.07 5.12H164.154V0.079999H158.07V5.12ZM163.758 26V8H158.394V26H163.758ZM174.833 20.024V11.924H180.485V8H174.833V1.52L169.433 2.24V8H165.437V11.924H169.433V20.348C169.433 24.056 171.773 26.252 175.625 26.18C175.841 26.18 176.129 26.18 176.597 26.144L180.161 25.856V21.824L177.785 21.968C177.425 22.004 177.101 22.004 176.993 22.004C175.445 22.04 174.833 21.212 174.833 20.024ZM211.902 8H206.214L200.67 20.132H200.526L194.982 8H189.258L197.97 26.036V33.92H203.19V25.964L211.902 8ZM223.122 26.36C229.566 26.36 234.174 22.94 234.174 17C234.174 11.06 229.566 7.64 223.122 7.64C216.606 7.64 212.07 11.06 212.07 17C212.07 22.94 216.606 26.36 223.122 26.36ZM223.122 22.292C219.666 22.292 217.506 20.132 217.506 17C217.506 13.868 219.666 11.708 223.122 11.708C226.542 11.708 228.738 13.868 228.738 17C228.738 20.132 226.542 22.292 223.122 22.292ZM256.973 20.312V8H251.645V16.424C251.645 20.348 249.485 22.436 246.461 22.436C243.473 22.436 241.889 20.672 241.889 16.964V8H236.525V18.332C236.525 24.308 240.557 26.36 245.165 26.36C249.413 26.36 251.069 24.452 251.681 23.516H251.861C252.005 24.524 252.185 25.352 252.329 26H257.549V25.604C257.153 24.812 256.973 22.688 256.973 20.312ZM271.031 7.928C270.419 7.856 269.843 7.82 269.519 7.82C267.359 7.82 266.567 8.756 265.415 10.988H265.271L265.523 8.396V8H260.195V26H265.523V18.224C265.523 15.056 266.567 12.572 269.807 12.572C269.915 12.572 270.131 12.572 270.635 12.608L272.579 12.788V8.144L271.031 7.928ZM287.098 13.76H292.282C291.886 9.584 287.854 7.64 282.85 7.64C278.458 7.64 273.814 9.188 273.814 13.292C273.814 16.784 276.982 18.332 282.742 18.872C285.802 19.16 287.134 19.556 287.134 20.852C287.134 22.22 284.794 22.508 283.138 22.508C281.302 22.508 278.638 22.22 278.314 20.06H273.166C273.526 24.596 277.99 26.36 282.85 26.36C287.566 26.36 292.282 25.028 292.282 20.744C292.282 17.576 290.122 15.632 284.074 15.092C280.33 14.804 278.998 14.408 278.998 13.148C278.998 11.816 281.266 11.492 282.778 11.492C284.542 11.492 286.702 11.996 287.098 13.76ZM305.435 22.22C302.591 22.22 299.963 21.104 299.279 18.476H315.659C315.839 18.008 315.947 17.288 315.947 16.568C315.947 10.952 311.159 7.64 305.075 7.64C298.631 7.64 294.023 11.348 294.023 17.108C294.023 22.796 298.775 26.324 305.471 26.324C310.331 26.324 315.371 24.524 315.947 20.06H310.583C309.935 21.752 307.595 22.22 305.435 22.22ZM305.075 11.564C307.919 11.564 309.899 12.788 310.475 14.948H299.423C300.179 12.824 302.159 11.564 305.075 11.564ZM324.053 26V0.079999H318.689V26H324.053ZM337.504 4.256C337.612 4.256 337.936 4.256 338.332 4.292L340.672 4.436V0.403999L337.144 0.115999C336.64 0.079999 336.352 0.079999 336.136 0.079999C332.284 0.00799775 329.98 2.204 329.98 5.912V8H325.768V11.924H329.98V26H335.344V11.924H340.312V8H335.344V6.236C335.344 5.048 335.956 4.22 337.504 4.256Z" fill="white"/>
</svg>

<svg width="341" height="34" fill="none" xmlns="http://www.w3.org/2000/svg"><path d="M13.333.8H.445V26h12.888c9.36 0 13.068-5.112 13.068-12.564C26.401 5.552 22.117.8 13.333.8zm.432 20.628h-7.74V5.372h7.74c5.22 0 7.056 3.852 7.056 8.064 0 4.176-2.088 7.992-7.056 7.992zm25.873 4.932c6.444 0 11.052-3.42 11.052-9.36 0-5.94-4.608-9.36-11.052-9.36-6.516 0-11.052 3.42-11.052 9.36 0 5.94 4.536 9.36 11.052 9.36zm0-4.068c-3.456 0-5.616-2.16-5.616-5.292 0-3.132 2.16-5.292 5.616-5.292 3.42 0 5.616 2.16 5.616 5.292 0 3.132-2.196 5.292-5.616 5.292zM65.313 7.64c-4.356 0-6.048 1.908-6.696 2.844h-.144l.18-2.088V8h-5.4v18h5.4v-8.424c0-3.924 2.484-6.012 5.616-6.012 3.168 0 4.536 1.764 4.536 5.472V26h5.364V15.668c0-5.976-3.816-8.028-8.856-8.028zM76.81.8v5.868h3.06c0 1.836-.468 2.628-2.88 2.628h-.828v3.816h1.224c3.924 0 5.544-1.548 5.544-5.724V.8h-6.12zm17.29 19.224v-8.1h5.651V8H94.1V1.52l-5.4.72V8h-3.996v3.924H88.7v8.424c0 3.708 2.34 5.904 6.192 5.832.216 0 .504 0 .972-.036l3.564-.288v-4.032l-2.376.144a8.06 8.06 0 0 1-.792.036c-1.548.036-2.16-.792-2.16-1.98zm26.736 2.196c-2.844 0-5.472-1.116-6.156-3.744h16.38c.18-.468.288-1.188.288-1.908 0-5.616-4.788-8.928-10.872-8.928-6.444 0-11.052 3.708-11.052 9.468 0 5.688 4.752 9.216 11.448 9.216 4.86 0 9.9-1.8 10.476-6.264h-5.364c-.648 1.692-2.988 2.16-5.148 2.16zm-.36-10.656c2.844 0 4.824 1.224 5.4 3.384h-11.052c.756-2.124 2.736-3.384 5.652-3.384zm34.712 8.748V.08h-5.328v9.9h-.144c-1.152-1.44-3.384-2.34-6.3-2.34-6.084 0-9.9 3.456-9.9 9.36 0 5.868 3.816 9.324 9.828 9.324 3.06 0 5.328-1.08 6.588-2.844h.144c.144 1.044.324 1.872.504 2.52h5.184v-.396c-.396-.792-.576-2.916-.576-5.292zm-10.764 1.836c-3.348 0-5.472-1.908-5.472-5.148 0-3.276 2.124-5.184 5.472-5.184 3.276 0 5.436 1.908 5.436 5.184 0 3.24-2.16 5.148-5.436 5.148zM158.07 5.12h6.084V.08h-6.084v5.04zM163.758 26V8h-5.364v18h5.364zm11.075-5.976v-8.1h5.652V8h-5.652V1.52l-5.4.72V8h-3.996v3.924h3.996v8.424c0 3.708 2.34 5.904 6.192 5.832.216 0 .504 0 .972-.036l3.564-.288v-4.032l-2.376.144a8.06 8.06 0 0 1-.792.036c-1.548.036-2.16-.792-2.16-1.98zM211.902 8h-5.688l-5.544 12.132h-.144L194.982 8h-5.724l8.712 18.036v7.884h5.22v-7.956L211.902 8zm11.22 18.36c6.444 0 11.052-3.42 11.052-9.36 0-5.94-4.608-9.36-11.052-9.36-6.516 0-11.052 3.42-11.052 9.36 0 5.94 4.536 9.36 11.052 9.36zm0-4.068c-3.456 0-5.616-2.16-5.616-5.292 0-3.132 2.16-5.292 5.616-5.292 3.42 0 5.616 2.16 5.616 5.292 0 3.132-2.196 5.292-5.616 5.292zm33.851-1.98V8h-5.328v8.424c0 3.924-2.16 6.012-5.184 6.012-2.988 0-4.572-1.764-4.572-5.472V8h-5.364v10.332c0 5.976 4.032 8.028 8.64 8.028 4.248 0 5.904-1.908 6.516-2.844h.18c.144 1.008.324 1.836.468 2.484h5.22v-.396c-.396-.792-.576-2.916-.576-5.292zm14.058-12.384a14.629 14.629 0 0 0-1.512-.108c-2.16 0-2.952.936-4.104 3.168h-.144l.252-2.592V8h-5.328v18h5.328v-7.776c0-3.168 1.044-5.652 4.284-5.652.108 0 .324 0 .828.036l1.944.18V8.144l-1.548-.216zm16.067 5.832h5.184c-.396-4.176-4.428-6.12-9.432-6.12-4.392 0-9.036 1.548-9.036 5.652 0 3.492 3.168 5.04 8.928 5.58 3.06.288 4.392.684 4.392 1.98 0 1.368-2.34 1.656-3.996 1.656-1.836 0-4.5-.288-4.824-2.448h-5.148c.36 4.536 4.824 6.3 9.684 6.3 4.716 0 9.432-1.332 9.432-5.616 0-3.168-2.16-5.112-8.208-5.652-3.744-.288-5.076-.684-5.076-1.944 0-1.332 2.268-1.656 3.78-1.656 1.764 0 3.924.504 4.32 2.268zm18.337 8.46c-2.844 0-5.472-1.116-6.156-3.744h16.38c.18-.468.288-1.188.288-1.908 0-5.616-4.788-8.928-10.872-8.928-6.444 0-11.052 3.708-11.052 9.468 0 5.688 4.752 9.216 11.448 9.216 4.86 0 9.9-1.8 10.476-6.264h-5.364c-.648 1.692-2.988 2.16-5.148 2.16zm-.36-10.656c2.844 0 4.824 1.224 5.4 3.384h-11.052c.756-2.124 2.736-3.384 5.652-3.384zM324.053 26V.08h-5.364V26h5.364zm13.451-21.744c.108 0 .432 0 .828.036l2.34.144V.404l-3.528-.288c-.504-.036-.792-.036-1.008-.036-3.852-.072-6.156 2.124-6.156 5.832V8h-4.212v3.924h4.212V26h5.364V11.924h4.968V8h-4.968V6.236c0-1.188.612-2.016 2.16-1.98z" fill="#fff"/></svg>
